contributed-vectors/bluk.svg

<?xml version="1.0" encoding="UTF-8" standalone="no"?>
<svg
   xmlns:dc="http://purl.org/dc/elements/1.1/"
   xmlns:cc="http://creativecommons.org/ns#"
   xmlns:rdf="http://www.w3.org/1999/02/22-rdf-syntax-ns#"
   xmlns:svg="http://www.w3.org/2000/svg"
   xmlns="http://www.w3.org/2000/svg"
   xmlns:sodipodi="http://sodipodi.sourceforge.net/DTD/sodipodi-0.dtd"
   xmlns:inkscape="http://www.inkscape.org/namespaces/inkscape"
   viewBox="0 0 192 192"
   version="1.1"
   id="svg16"
   sodipodi:docname="bluk.svg"
   inkscape:version="0.92.4 (5da689c313, 2019-01-14)">
  <metadata
     id="metadata20">
    <rdf:RDF>
      <cc:Work
         rdf:about="">
        <dc:format>image/svg+xml</dc:format>
        <dc:type
           rdf:resource="http://purl.org/dc/dcmitype/StillImage" />
        <dc:title />
      </cc:Work>
    </rdf:RDF>
  </metadata>
  <sodipodi:namedview
     pagecolor="#ffffff"
     bordercolor="#666666"
     borderopacity="1"
     objecttolerance="10"
     gridtolerance="10"
     guidetolerance="10"
     inkscape:pageopacity="0"
     inkscape:pageshadow="2"
     inkscape:window-width="1920"
     inkscape:window-height="1017"
     id="namedview18"
     showgrid="true"
     inkscape:zoom="3.4766083"
     inkscape:cx="66.879928"
     inkscape:cy="79.724582"
     inkscape:window-x="-8"
     inkscape:window-y="-8"
     inkscape:window-maximized="1"
     inkscape:current-layer="svg16">
    <inkscape:grid
       type="xygrid"
       id="grid827"
       spacingx="4"
       spacingy="4" />
  </sodipodi:namedview>
  <defs
     id="defs4">
    <style
       id="style2">.a{fill:none;stroke:#b1b5bd;stroke-linecap:round;stroke-linejoin:round;isolation:isolate;opacity:0.63;}</style>
    <style
       id="style2-8">.a{fill:none;stroke:#b1b5bd;stroke-linecap:round;stroke-linejoin:round;isolation:isolate;opacity:0.63;}</style>
  </defs>
  <rect
     class="a"
     x="32"
     y="8"
     width="128"
     height="176"
     rx="10"
     id="rect12"
     style="fill:#ffb0ac;stroke:none;opacity:1;fill-opacity:1" />
  <path
     style="fill:#ba6561;fill-opacity:1;stroke:none;stroke-width:1.09544516px;stroke-linecap:butt;stroke-linejoin:miter;stroke-opacity:1"
     d="m 52,112 v 72 h 88 v -72 z"
     id="path836"
     inkscape:connector-curvature="0" />
  <rect
     style="opacity:0.25;vector-effect:none;fill:#000000;fill-opacity:1;fill-rule:evenodd;stroke:none;stroke-width:8.76356125;stroke-linecap:round;stroke-linejoin:round;stroke-miterlimit:4;stroke-dasharray:none;stroke-opacity:1;paint-order:stroke fill markers"
     id="rect861"
     width="44"
     height="72"
     x="96"
     y="112" />
  <rect
     style="opacity:1;vector-effect:none;fill:#fcecdc;fill-opacity:1;fill-rule:evenodd;stroke:none;stroke-width:8.50575256;stroke-linecap:round;stroke-linejoin:round;stroke-miterlimit:4;stroke-dasharray:none;stroke-opacity:1;paint-order:stroke fill markers"
     id="rect856"
     width="64"
     height="104"
     x="64"
     y="8" />
  <path
     style="fill:#ff837d;stroke:none;stroke-width:1px;stroke-linecap:butt;stroke-linejoin:miter;stroke-opacity:1"
     d="m 96,96 -44,16 44,16 44,-16 z"
     id="path829"
     inkscape:connector-curvature="0"
     sodipodi:nodetypes="ccccc" />
  <path
     inkscape:connector-curvature="0"
     style="opacity:0.5;vector-effect:none;fill:#ffd6d4;fill-opacity:1;fill-rule:evenodd;stroke:none;stroke-width:8;stroke-linecap:round;stroke-linejoin:round;stroke-miterlimit:4;stroke-dasharray:none;stroke-opacity:1;paint-order:stroke fill markers"
     d="M 96,96 64,107.63672 V 112 h 8 l 24,12 24,-12 h 8 v -4.36328 z"
     id="rect838" />
  <path
     inkscape:connector-curvature="0"
     style="fill:#ffffff;stroke:none;stroke-width:1px;stroke-linecap:butt;stroke-linejoin:miter;stroke-opacity:1"
     d="m 96,100 -32,12 32,12 32,-12 z m 0,4 21.5,8 -21.5,8 -21.5,-8 z"
     id="path831" />
  <path
     style="fill:#83868c;stroke:none;stroke-width:1px;stroke-linecap:butt;stroke-linejoin:miter;stroke-opacity:1"
     d="M 79.962991,55.588315 89.742637,66.446599 99.594193,69.82633 112,70.761149 123.61185,65.943235 103.90874,52.136675 Z"
     id="path867"
     inkscape:connector-curvature="0" />
  <path
     style="fill:#56595b;stroke:none;stroke-width:1px;stroke-linecap:butt;stroke-linejoin:miter;stroke-opacity:1"
     d="M 94.272914,91.686716 100.81665,80.828432 99.594193,69.82633 79.962991,55.588315 74.641713,77.52061 Z"
     id="path865"
     inkscape:connector-curvature="0" />
  <path
     style="fill:#4a4a4a;stroke:none;stroke-width:1px;stroke-linecap:butt;stroke-linejoin:miter;stroke-opacity:1"
     d="M 94.272914,91.686716 99.594193,69.82633 123.61185,65.943235 118.5063,87.803621 Z"
     id="path863"
     inkscape:connector-curvature="0" />
  <path
     inkscape:connector-curvature="0"
     style="opacity:0.5;fill:#fcecdc;stroke:none;stroke-width:1px;stroke-linecap:butt;stroke-linejoin:miter;stroke-opacity:1"
     d="M 103.9082,52.136719 79.962891,55.587891 74.642578,77.521484 94.273438,91.6875 118.50586,87.802734 123.61133,65.943359 Z"
     id="path867-2" />
</svg>

<svg xmlns="http://www.w3.org/2000/svg" viewBox="0 0 192 192"><rect width="128" height="176" x="32" y="8" rx="10" style="fill:#ffb0ac;stroke:none;opacity:1;fill-opacity:1;stroke-linecap:round;stroke-linejoin:round;isolation:isolate"/><path d="M52 112v72h88v-72z" style="fill:#ba6561;fill-opacity:1;stroke:none;stroke-width:1.09544516px;stroke-linecap:butt;stroke-linejoin:miter;stroke-opacity:1"/><path d="M96 112h44v72H96z" style="opacity:.25;vector-effect:none;fill:#000;fill-opacity:1;fill-rule:evenodd;stroke:none;stroke-width:8.76356125;stroke-linecap:round;stroke-linejoin:round;stroke-miterlimit:4;stroke-dasharray:none;stroke-opacity:1;paint-order:stroke fill markers"/><path d="M64 8h64v104H64z" style="opacity:1;vector-effect:none;fill:#fcecdc;fill-opacity:1;fill-rule:evenodd;stroke:none;stroke-width:8.50575256;stroke-linecap:round;stroke-linejoin:round;stroke-miterlimit:4;stroke-dasharray:none;stroke-opacity:1;paint-order:stroke fill markers"/><path d="m96 96-44 16 44 16 44-16z" style="fill:#ff837d;stroke:none;stroke-width:1px;stroke-linecap:butt;stroke-linejoin:miter;stroke-opacity:1"/><path d="m96 96-32 11.637V112h8l24 12 24-12h8v-4.363z" style="opacity:.5;vector-effect:none;fill:#ffd6d4;fill-opacity:1;fill-rule:evenodd;stroke:none;stroke-width:8;stroke-linecap:round;stroke-linejoin:round;stroke-miterlimit:4;stroke-dasharray:none;stroke-opacity:1;paint-order:stroke fill markers"/><path d="m96 100-32 12 32 12 32-12zm0 4 21.5 8-21.5 8-21.5-8z" style="fill:#fff;stroke:none;stroke-width:1px;stroke-linecap:butt;stroke-linejoin:miter;stroke-opacity:1"/><path d="m79.963 55.588 9.78 10.859 9.851 3.38L112 70.76l11.612-4.818-19.703-13.806Z" style="fill:#83868c;stroke:none;stroke-width:1px;stroke-linecap:butt;stroke-linejoin:miter;stroke-opacity:1"/><path d="m94.273 91.687 6.544-10.859-1.223-11.002-19.631-14.238-5.321 21.933Z" style="fill:#56595b;stroke:none;stroke-width:1px;stroke-linecap:butt;stroke-linejoin:miter;stroke-opacity:1"/><path d="m94.273 91.687 5.321-21.86 24.018-3.884-5.106 21.86Z" style="fill:#4a4a4a;stroke:none;stroke-width:1px;stroke-linecap:butt;stroke-linejoin:miter;stroke-opacity:1"/><path d="m103.908 52.137-23.945 3.45-5.32 21.934 19.63 14.166 24.233-3.884 5.105-21.86Z" style="opacity:.5;fill:#fcecdc;stroke:none;stroke-width:1px;stroke-linecap:butt;stroke-linejoin:miter;stroke-opacity:1"/></svg>
